!!!COM: Mozart, Wolfgang Amadeus
!!!OTL: Musikalische Würfelspiele, Kontre-Tänze
!!!SCA: K<sup>6</sup> Anh. C30.01 (K<sup>3</sup> Anh. 294d)
**kern	**kern
*staff2	*staff2
*clefF4	*clefG2
*M2/4	*M2/4
*MM110	*MM110
*>[A,A1,A,A2,B]	*>[A,A1,A,A2,B]
*>norep[A,A2,B]	*>norep[A,A2,B]
*>A	*>A
=7	=7
4C	8cc
.	8cc
4C	8ee
.	8ee
=68	=68
4C	8gg
.	16gg
.	16ee
4r	8cc
.	16cc
.	16ee
=40	=40
8G	16ff
.	16ee
8GG	16dd
.	16cc
8GG	16b
.	16cc
8GG	16dd
.	16b
=15	=15
4C	16cc
.	16ee
.	16gg
.	16ee
4C	8cc
.	8cc
=120	=120
4D	16dd
.	16ee
.	16ff#
.	16gg
4F#	16aa
.	16bb
.	16ccc
.	16aa
=123	=123
4G	8gg
.	8dd
4GG	8b
.	8g
=73	=73
4C	8ee
.	8gg
4D	8ff#
.	8aa
=172	=172
*>A1	*>A1
4GG	4g 4b 4gg
16G	4r
16F	.
16E	.
16D	.
=172:|!	=172:|!
*>A2	*>A2
4GG	4g 4b 4gg
16GG	4r
16AA	.
16BB	.
16C#	.
=4||	=4||
*>B	*>B
4D	8d
.	8dd
4C 4D	8ff#
.	8aa
=104	=104
4G	8gg
.	16ddd
.	16bb
4GG	4gg
=87	=87
4C	8ee
.	16cc
.	16ee
4r	8gg
.	16ee
.	16cc
=46	=46
16G	8dd
16GG	.
16BB	8b
16D	.
16G	4g
16F	.
16E	.
16D	.
=151	=151
16C	4cc
16E	.
16G	.
16E	.
4C	8ee
.	8gg
=54	=54
16C	8cc
16E	.
16G	8ee
16E	.
16C	8ee
16E	.
16G	8ee
16E	.
=129	=129
4G	8ff
.	8dd
4GG	8b
.	8g
=127	=127
4C	4cc
4CC	4c
==	==
*-	*-
